X:1
T:If I Gained the World
T:If I Gained the World
T:Swedish Melody
T:Anna Ölander, 1904
T:Public Domain Courtesy of the Cyber Hymnal™
T:Public Domain Courtesy of the Cyber Hymnal™
C:Swedish Melody
Z:Public Domain
Z:Courtesy of the Cyber Hymnal™
%%score ( 1 2 ) ( 3 4 )
L:1/8
Q:1/4=87
M:3/4
K:Eb
V:1 treble 
V:2 treble 
V:3 bass 
V:4 bass 
V:1
 [EB]>[EB] | [Ec][EB] [B,G]>B, [B,E][B,F] | [B,E]2 [B,D]2 [DB]>[DB] | [Dc][DB] [DA]>B, [B,C][B,D] | %4
w: 1.~If I|gained the world, but lost the|Sav- ior, Were my|life worth liv- ing for a|
w: 2.~Had I|wealth and love in full- est|mea- sure, And a|name re- vered both far and|
w: 3.~O what|emp- ti- ness!— with- out the|Sav- ior ’Mid the|sins and sor- rows here be-|
w: 4.~O the|joy of hav- ing all in|Je- sus! What a|balm the brok- en heart to|
 (E>G B2) [EB]>[EB] | [Ec][EB] [B,G]>B, [B,E][B,F] | [B,E]2 [B,D]2 [DB]>[DB] | %7
w: day? * * Could my|yearn- ing heart find rest and|com- fort In the|
w: near, * * Yet no|hope be- yond, no har- bor|wait- ing, Where my|
w: low! * * And e-|ter- ni- ty, how dark with-|out Him! On- ly|
w: heal! * * Ne’er a|sin so great, but He’ll for-|give it, Nor a|
 [Dc][DB] [DA]>B, [B,C][B,D] | [B,E]4 [Ee]>[Ee] | [Ed][Ec] [EA]>[Ee] [Ed][Ec] | %10
w: things that soon must pass a-|way? If I|gained the world, but lost the|
w: storm- tossed vess- el I could|steer; If I|gained the world, but lost the|
w: night and tears and end- less|woe! What, though|I might live with- out the|
w: sor- row that He does not|feel! If I|have but Jes- us, on- ly|
 (cB) [EG]2 [EB]>[EB] | [Ec][EB] [DA]>B, [B,D][DF] | (E>G B2) [Ee]>[Ee] | %13
w: Sav- * ior, Would my|gain be worth the life- long|strife? * * Are all|
w: Sav- * ior, Who en-|dured the cross and died for|me, * * Could then|
w: Sav- * ior, When I|come to die, how would it|be? * * O to|
w: Jes- * us, No- thing|else in all the world be-|side— * * O then|
 [Ed][Ec] [EA]>[Ee] [Ed][Ec] | (cB) [EG]2 [EB]>[EB] | [Ec][EB] [DA]>B, [B,D][B,F] | [B,E]4 |] %17
w: earth- ly plea- sures worth com-|par- * ing For a|mo- ment with a Christ- filled|life?|
w: all the world af- ford a|ref- * uge, Whi- ther,|in my an- guish, I might|flee?|
w: face the val- ley’s gloom with-|out * Him! And with-|out Him all e- ter- ni-|ty!|
w: ev- ery- thing is mine in|Je- * sus; For my|needs and more He will pro-|vide.|
V:2
 x2 | x7/2 B,/ x2 | x6 | x7/2 B,/ x2 | B,4 x2 | x7/2 B,/ x2 | x6 | x7/2 B,/ x2 | x6 | x6 | E2 x4 | %11
 x7/2 B,/ x2 | E4 x2 | x6 | E2 x4 | x7/2 B,/ x2 | x4 |] %17
V:3
 [E,G,]>[E,G,] | [E,A,][E,G,] [E,B,]>[E,G,] [E,G,][E,A,] | [B,,G,]2 [B,,F,]2 [B,,F,]>[B,,F,] | %3
 [B,,A,][B,,G,] [B,,F,]>[D,F,] [C,F,][B,,F,] | [E,G,]4 [E,G,]>[E,G,] | %5
 [E,A,][E,G,] [E,B,]>[E,G,] [E,G,][E,A,] | [B,,G,]2 [B,,F,]2 [B,,F,]>[B,,F,] | %7
 [B,,A,][B,,G,] [B,,F,]>[B,,D,] [B,,E,][B,,F,] | [E,G,]4 [E,G,]>[E,G,] | %9
 [A,,A,][A,,A,] [C,A,]>[C,A,] [B,,A,][A,,A,] | (A,G,) [E,B,]2 [G,B,]>[G,B,] | %11
 A,[G,B,] [F,B,]>[F,A,] [B,,A,][B,,A,] | [E,G,]4 [E,G,]>[E,G,] | %13
 [A,,A,][A,,A,] [C,A,]>[C,A,] [B,,A,][A,,A,] | (A,G,) [E,B,]2 [G,B,]>[G,B,] | %15
 A,[G,B,] [G,B,]>[F,A,] [B,,A,][B,,A,] | [E,G,]4 |] %17
V:4
 x2 | x6 | x6 | x6 | x6 | x6 | x6 | x6 | x6 | x6 | E,2 x4 | A, x5 | x6 | x6 | E,2 x4 | A, x5 | %16
 x4 |] %17

